!!!OTL: Abschied von Frankfurt (242), S. 519
!!!id: T0430
**kern
*clefG2
*k[f#]
*G:
{16g
=1
16g
4b
4a
=2
8g
16f#
8e
16d}
=3
{8d
=4
8g
8g
8a
8dd
=5
4b}
4r
=6
{4b
4a
=7
8g
16f#
16e
8d}
=8
{8d
=9
8g
8g
8a
8dd
=10
4b}
8r
=11
{16g
16a
=12
8b
8b
8b
16cc
16b
=13
8a
8a
8a}
=14
{16b
16a
=15
8g
8g
8g
16a
16g
=16
8f#
8f#
8f#}
=17
{8d
=18
8g
8g
8a
8a
=19
8b
16r
16cc
8dd
8b
=20
4a
8g}
8r
==
*-
!!!minrhy: 16
!!!meters: 2/4 ]  ZZ[7
!!!cut: Abschied von Frankfurt (242), S. 519
!!!reg: Luxemburg
!!!trd: Singendes Volk, Esch-Alzette, 1937 posth.
!!!rhy1:   X__X__  X_XX_X
!!!rhy2: X_  X_X_X_X_  X__0__
!!!key: T0430  16  G 2/4 ]  ZZ[7
!!!mod: HEPTATONIK IONISCH]  AMBITUS[8
!!!kad: -53-532-71
!!!akz: 31_13_31_13_32_1-7_132_
!!!fot: 'a__b__a__b__c__cs'bv_
!!!for: 'a__b__c__bv_d__d__bw_
!!!fok: '\__^a_\__^a_^a_\__^a_
!! PHRAS[VORWIEGEND AUFTAKTIG]
!!!fkt: Berufslied, Abschiedslied
!!!bem: Junglinster, hhh Vater des Verfassers, 1900
!! THILL; Mathias
!! PR[23] 2K[0] 2G[9] 3K[9] 3G[2] 4A[5] 4Ü[0] 5A[0] 6K[0] 6G[0]
!! 7K[0] 7G[0] 8A[2] MEHR[0] SI[28] ABS[43] SR[9] SP[19]
!! ST[10] 2k[9] 2g[33] 3k[7] 3g[0] 4d[0] 4ü[0] 5d[0] 6k[0] 6g[0]
!! 7k[0] 7g[0] 8d[0] mehr[0] si[49] dm[-21] sr[42] sp[7]
!! 1F[68] 2F[27] 3F[0] 4F[0] LF[0] 2P[5] 3P[0] 4P[0] TRI[0] DF[3] AB[44]
!! TF[0] U3K[0] U3[0] U4[0] U4Ü[0] U5[11] U6K[0] U6[14] U7K[0] U7[7]
!! N1[20] N2K[0] N2[14] N3K[0] N3[16] N4[0] N4Ü[2] N5[14] N6K[0] N6[2]
!!!n7k: 0] N7[0] O1[0] O2K[0] O2[0] O3K[0] O3[0] HÖ[0
